X:174
T: HEIDA DIE LIEBE MAIENZEIT
N: B0208
O: Europa, Mitteleuropa, Deutschland, Rheinland
R: Jahreszeiten - Lied, Fruehling
M: 2/4
L: 1/16
K: F
 | c2ccd2d2 | c2B2A2
F2 | c2c2d2d2 | c2B2A2z2 |
c2c2BBB2 | A2A2G4 |
c2c2B2B2 | A2AAG4 |
c2B2A2F2 | F4F2z2

@@@ Tune index: 1977
